X:66
T:Dick Gossip's reel
R:Reel
S:local sessions
Z:Transcription, arrangement, chords:Mike Long
M:C|
L:1/8
K:D
de|:\
"D"f2af "A"gfed|"D"f2af "G"gfed|"A"e>eef gfed|"A"e>def "G"gfed|\
"D"f2af "A"gfed|
"D"f2af "G"gfed|\
"A"cdef gece|[1 "G"d2dc "D"d2de:|[2 "G"d2dc "D"d2ef\
|:"G"gB~B2 gBaB|gB~B2 gfed|
"A"(3(cBA) eA fAeA|(3(cBA) ef gfef|\
"G"gB~B2 gBaB|gB~B2 gfed|"A"cdef gece|"G"d2dc "D"d2:|
